sort-variant-lock.svg

<svg fill="currentColor" viewBox="0 0 24 24"><path d="M21.8 16v-1.5c0-1.4-1.4-2.5-2.8-2.5s-2.8 1.1-2.8 2.5V16c-.6 0-1.2.6-1.2 1.2v3.5c0 .7.6 1.3 1.2 1.3h5.5c.7 0 1.3-.6 1.3-1.2v-3.5c0-.7-.6-1.3-1.2-1.3m-1.3 0h-3v-1.5c0-.8.7-1.3 1.5-1.3s1.5.5 1.5 1.3zM3 13v-2h12v2zm0-7h18v2H3zm0 12v-2h6v2z"/></svg>

<svg  viewBox="0 0 24 24" fill="currentColor"><path  d="M21.8 16V14.5C21.8 13.1 20.4 12 19 12S16.2 13.1 16.2 14.5V16C15.6 16 15 16.6 15 17.2V20.7C15 21.4 15.6 22 16.2 22H21.7C22.4 22 23 21.4 23 20.8V17.3C23 16.6 22.4 16 21.8 16M20.5 16H17.5V14.5C17.5 13.7 18.2 13.2 19 13.2S20.5 13.7 20.5 14.5V16M3 13V11H15V13H3M3 6H21V8H3V6M3 18V16H9V18H3"/></svg>
